X:14
T:Rights of Man
R:hornpipe
C:James Hill (England)
M:4/4
L:1/8
K:Em
GA | "Em" (3(BcB) (3(ABA) GAFG | EFGA     B2      ef | "G" gfed        edBd | "Am" cBAG  A2  GA |
     "Em" (3(BcB) (3(ABA) GAFG | EFGA     B2      ef | "G" gfed "Bm/D" Bgfg | "Em" e2   E2   E2 :|
ga | "Em"  ~b2     bg     efga | bagf           egfe | "D" ~d2  d  ^c  defg | "(Am)" afdf a2 gf |
     "Em" edef        "D" gfga | "G" (3(bag) af gfef | "G" gfed "Bm/D" Bgfg | "Em" e2   E2   E2 :|
